usr/share/icons/Yaru-Cinnamon/scalable/apps/evince-symbolic.svg

<?xml version="1.0" encoding="UTF-8" standalone="no"?>
<svg
   xmlns:osb="http://www.openswatchbook.org/uri/2009/osb"
   xmlns:dc="http://purl.org/dc/elements/1.1/"
   xmlns:cc="http://creativecommons.org/ns#"
   xmlns:rdf="http://www.w3.org/1999/02/22-rdf-syntax-ns#"
   xmlns:svg="http://www.w3.org/2000/svg"
   xmlns="http://www.w3.org/2000/svg"
   xmlns:sodipodi="http://sodipodi.sourceforge.net/DTD/sodipodi-0.dtd"
   xmlns:inkscape="http://www.inkscape.org/namespaces/inkscape"
   height="16"
   id="svg7384"
   version="1.1"
   width="16"
   sodipodi:docname="evince-symbolic.svg"
   inkscape:version="0.92.4 (5da689c313, 2019-01-14)">
  <sodipodi:namedview
     pagecolor="#ffffff"
     bordercolor="#666666"
     borderopacity="1"
     objecttolerance="10"
     gridtolerance="10"
     guidetolerance="10"
     inkscape:pageopacity="0"
     inkscape:pageshadow="2"
     inkscape:window-width="1296"
     inkscape:window-height="704"
     id="namedview837"
     showgrid="false"
     inkscape:zoom="1.0234375"
     inkscape:cx="8.0431821"
     inkscape:cy="2.5904683"
     inkscape:window-x="70"
     inkscape:window-y="27"
     inkscape:window-maximized="1"
     inkscape:current-layer="svg7384">
    <inkscape:grid
       type="xygrid"
       id="grid4135" />
  </sodipodi:namedview>
  <metadata
     id="metadata20854">
    <rdf:RDF>
      <cc:Work
         rdf:about="">
        <dc:title></dc:title>
        <dc:format>image/svg+xml</dc:format>
        <dc:type
           rdf:resource="http://purl.org/dc/dcmitype/StillImage" />
      </cc:Work>
    </rdf:RDF>
  </metadata>
  <defs
     id="defs7386">
    <linearGradient
       id="linearGradient5606"
       osb:paint="solid">
      <stop
         id="stop5608"
         offset="0"
         style="stop-color:#000000;stop-opacity:1;" />
    </linearGradient>
    <linearGradient
       id="linearGradient4526"
       osb:paint="solid">
      <stop
         id="stop4528"
         offset="0"
         style="stop-color:#ffffff;stop-opacity:1;" />
    </linearGradient>
    <linearGradient
       id="linearGradient3600-4"
       osb:paint="gradient">
      <stop
         id="stop3602-7"
         offset="0"
         style="stop-color:#f4f4f4;stop-opacity:1" />
      <stop
         id="stop3604-6"
         offset="1"
         style="stop-color:#dbdbdb;stop-opacity:1" />
    </linearGradient>
  </defs>
  <g
     id="layer9"
     label="status"
     style="display:inline"
     transform="translate(-753.00024,147)" />
  <g
     id="layer2"
     style="display:inline"
     transform="translate(-512.00004,-220)" />
  <g
     id="layer4"
     style="display:inline"
     transform="translate(-512.00004,-220)" />
  <g
     id="g1812"
     style="display:inline"
     transform="translate(-512.00004,-220)" />
  <g
     id="g6217"
     style="display:inline"
     transform="translate(-512.00004,-220)" />
  <g
     id="layer3"
     style="display:inline"
     transform="translate(-512.00004,-220)" />
  <g
     id="layer1"
     style="display:inline"
     transform="translate(-512.00004,-220)" />
  <g
     id="g4133">
    <path
       inkscape:connector-curvature="0"
       id="path2732-8-9-7"
       d="M 4.9941406,0 C 3.7359422,0.01453414 2.8152478,-0.03056128 2.0625,0.38476562 1.6861261,0.59242908 1.389274,0.94414736 1.2246094,1.3828125 1.0599447,1.8214776 1,2.3423913 1,3 v 10 c 0,0.657611 0.059927,1.178578 0.2246094,1.617188 C 1.3892918,15.055797 1.6861385,15.405714 2.0625,15.613281 2.8152229,16.028416 3.7360403,15.984933 4.9941406,16 h 0.00195 5.0058592 0.0039 c 1.258193,-0.01454 2.178893,0.03056 2.931641,-0.384766 0.376374,-0.207663 0.673225,-0.559381 0.837891,-0.998046 C 13.940056,14.178522 14,13.657611 14,13 V 3 C 14,2.342391 13.940074,1.8214208 13.775391,1.3828125 13.610707,0.94420416 13.313862,0.59428509 12.9375,0.38671875 12.184777,-0.02841392 11.263955,0.01506683 10.005859,0 h -0.002 -5.0058591 z M 5,1 h 5 c 1.258621,0.015235 2.089098,0.059878 2.455078,0.2617188 0.183422,0.1011586 0.28722,0.2128583 0.384766,0.4726562 C 12.93739,1.9941729 13,2.407609 13,3 v 10 c 0,0.592394 -0.06259,1.005716 -0.160156,1.265625 -0.09756,0.259909 -0.203309,0.371461 -0.386719,0.472656 C 12.08717,14.940196 11.25852,14.985293 10,15 H 5.0058594 5 C 3.741374,14.984765 2.9109003,14.940122 2.5449219,14.738281 2.3615008,14.637123 2.2577019,14.525425 2.1601562,14.265625 2.0626106,14.005825 2,13.592394 2,13 V 3 C 2,2.4076087 2.0625928,1.9942833 2.1601562,1.734375 2.2577197,1.4744667 2.3615133,1.362914 2.5449219,1.2617188 2.9108755,1.0598047 3.7414722,1.0147015 5,1 Z"
       style="color:#000000;font-style:normal;font-variant:normal;font-weight:normal;font-stretch:normal;font-size:medium;line-height:normal;font-family:sans-serif;font-variant-ligatures:normal;font-variant-position:normal;font-variant-caps:normal;font-variant-numeric:normal;font-variant-alternates:normal;font-feature-settings:normal;text-indent:0;text-align:start;text-decoration:none;text-decoration-line:none;text-decoration-style:solid;text-decoration-color:#000000;letter-spacing:normal;word-spacing:normal;text-transform:none;writing-mode:lr-tb;direction:ltr;text-orientation:mixed;dominant-baseline:auto;baseline-shift:baseline;text-anchor:start;white-space:normal;shape-padding:0;clip-rule:nonzero;display:inline;overflow:visible;visibility:visible;opacity:1;isolation:auto;mix-blend-mode:normal;color-interpolation:sRGB;color-interpolation-filters:linearRGB;solid-color:#000000;solid-opacity:1;vector-effect:none;fill:#808080;fill-opacity:1;fill-rule:nonzero;stroke:none;stroke-width:1.00000012;stroke-linecap:butt;stroke-linejoin:miter;stroke-miterlimit:4;stroke-dasharray:none;stroke-dashoffset:0;stroke-opacity:1;marker:none;color-rendering:auto;image-rendering:auto;shape-rendering:auto;text-rendering:auto;enable-background:accumulate" />
    <path
       sodipodi:nodetypes="ccsaasaascssssssssss"
       inkscape:connector-curvature="0"
       id="rect3757-5"
       d="M 11.851354,10 H 1.1486444 c 0,0 -0.33444996,1.6638 0,2.66208 0.31533,0.94117 1.4722874,1.24473 2.3759756,1.33103 0.7015542,0.067 1.4903067,-0.185996 2.00676,-0.66552 C 6.1472168,12.755789 6.18244,10.99303 6.5,11 c 0.29736,0.007 0.3527832,1.755789 0.96862,2.32759 0.5164533,0.479524 1.3052058,0.732517 2.00676,0.66552 0.903688,-0.0863 2.060644,-0.38986 2.375974,-1.33103 0.33446,-0.99828 0,-2.66208 0,-2.66208 z M 10.714,11.33103 c 0.31533,0.31373 0.31533,1.01732 0,1.33105 -0.33446,0.33275 -2.10822,0.33275 -2.44267,0 -0.33446,-0.33277 -0.31533,-1.01732 0,-1.33105 0.33445,-0.33275 2.10821,-0.33275 2.44267,0 z m -5.98533,0 c 0.31533,0.31373 0.31533,1.01732 0,1.33105 -0.33445,0.33275 -2.10821,0.33275 -2.44267,0 -0.31533,-0.31373 -0.31533,-1.01732 0,-1.33105 0.33446,-0.33275 2.10822,-0.33275 2.44267,0 z"
       style="opacity:1;fill:#808080;fill-opacity:1;stroke:none;stroke-width:0.47179326;stroke-linecap:butt;stroke-linejoin:round;stroke-miterlimit:4;stroke-dasharray:none;stroke-opacity:1" />
  </g>
</svg>

<svg xmlns="http://www.w3.org/2000/svg" height="16" width="16">
    <g fill="gray">
        <path d="M4.994 0C3.736.015 2.815-.03 2.063.385a1.88 1.88 0 00-.838.998C1.06 1.82 1 2.343 1 3v10c0 .658.06 1.179.225 1.617.164.439.461.789.837.996.753.415 1.674.372 2.932.387h5.012c1.258-.015 2.179.03 2.931-.385a1.88 1.88 0 00.838-.998c.165-.438.225-.96.225-1.617V3c0-.658-.06-1.179-.225-1.617a1.875 1.875 0 00-.838-.996C12.185-.028 11.264.015 10.006 0H4.998zM5 1h5c1.259.015 2.09.06 2.455.262.184.1.287.213.385.472.097.26.16.674.16 1.266v10c0 .592-.063 1.006-.16 1.266-.098.26-.203.371-.387.472-.366.202-1.194.247-2.453.262H5c-1.259-.015-2.09-.06-2.455-.262-.183-.1-.287-.213-.385-.472C2.063 14.006 2 13.592 2 13V3c0-.592.063-1.006.16-1.266.098-.26.202-.371.385-.472C2.91 1.06 3.74 1.015 5 1z" style="line-height:normal;font-variant-ligatures:normal;font-variant-position:normal;font-variant-caps:normal;font-variant-numeric:normal;font-variant-alternates:normal;font-feature-settings:normal;text-indent:0;text-align:start;text-decoration-line:none;text-decoration-style:solid;text-decoration-color:#000;text-transform:none;text-orientation:mixed;white-space:normal;shape-padding:0;isolation:auto;mix-blend-mode:normal;solid-color:#000;solid-opacity:1;marker:none" color="#000" font-weight="400" font-family="sans-serif" overflow="visible"/>
        <path d="M11.851 10H1.15s-.335 1.664 0 2.662c.315.941 1.472 1.245 2.376 1.331.701.067 1.49-.186 2.006-.665.616-.572.651-2.335.969-2.328.297.007.353 1.756.969 2.328.516.48 1.305.732 2.006.665.904-.086 2.061-.39 2.376-1.33.335-1 0-2.663 0-2.663zm-1.137 1.331c.315.314.315 1.017 0 1.331-.334.333-2.108.333-2.443 0-.334-.333-.315-1.017 0-1.331.335-.333 2.109-.333 2.443 0zm-5.985 0c.315.314.315 1.017 0 1.331-.335.333-2.109.333-2.443 0-.315-.314-.315-1.017 0-1.331.334-.333 2.108-.333 2.443 0z"/>
    </g>
</svg>
